X: 1
T: Farewell To Uist
R: waltz
M: 3/4
L: 1/8
K: Emin
ed|B3A AG|AGE3G|A3BB2|e3e de|g3a ag|edB3A|G3B AG|E4ed|
B3A AG|AGE3G|A3BB2|e3e de|g3a ag|edB3A|G3B de|A4a2|
a4b2|age2eB|d3eg2|g4ag|de ga ed|AB de AG|EG2B AG|E4ed|
B3A AG|AGE3G|A3BB2|e3e de|g3a ag|edB3A|G3B de|A4ed|


Tune 8085	Setting 29636

